X:1230
T:Irish Reel IV
T:Lowlands of Scotland, The
T:Hare's Foot
B:Kerr's Merry Melodies, Bk.2, p32
M:4/4
L:1/8
K:Em
e2|G2 GA BE E2|BEdE BEEF|G2 GA BABd|egfd e2:|
ef|(3gag (3fgf edBc|d2 ed Bd d2|(3gag (3fgf edBd|egfd e2 ef|
(3gag (3fgf edBc|d2 ed Bd d2|bgaf gfed|egfd e2|]
